X:1
T:Title
%%score ( 1 2 ) ( 3 4 )
L:1/8
Q:1/4=97
M:4/4
K:C
V:1 treble nm="Grand Piano, Soprano"
V:2 treble 
V:3 bass nm="Choir Pad, Trusting in Jesus Alone"
V:4 bass 
V:1
 [EG]2 [EG][FA] [EG]2 [Gc][Gd] | [Ge]2 [Ge][Fd] [Ec]4 | [Ac]2 [GB][FA] [EG]2 [Cc][Ec] | %3
w: By~Eden~Reeder~Ramer * * * * *|||
 [GB]2 [FB][Ec] [Gd]4 | [Gd]2 [Gd][Ge] [Gf]2 [FB][FB] | [Ec]2 [Ec][Ad] [^Ge]4 | %6
w: |||
 [FA]2 [_EB][Ec] [=Ec]2 [DB][Fd] | [Ec]6 z2 | [Ge]2 [EG][FA] [EG]2 [Ec][Ge] | [Gd]2 [^FA]2 [=Fd]4 | %10
w: ||||
 [Fd]2 [FG][FA] [FG]2 [Fd][Ge] | c2- [Fc-]2 [Ec]2 [Ec][GB] | [FA]2 [GA][GA] [^Fd]2 [Dc][DA] | %13
w: |||
 [EG]2 [Gc][Gd] [Ge]4 | [FA]2 [_EB][Ec] [=Ec]2 [DB][Fd] | [Ec]8 |] %16
w: |||
V:2
 x8 | x8 | x8 | x8 | x8 | x8 | x8 | x8 | x8 | x8 | x8 | E2 z2 z4 | x8 | x8 | x8 | x8 |] %16
V:3
 [C,C]2 [C,C][C,C] [C,C]2 [E,C][G,B,] | C2 [G,B,][G,B,] [C,C]4 | %2
 [F,C]2 [F,C][F,C] [C,C]2 [E,G,][C,G,] | G,2 [G,D][G,C] [G,B,]4 | %4
 [G,B,]2 [G,B,][G,C] [G,D]2 [G,D][G,D] | [A,C]2 A,[F,A,] [E,B,]4 | A,C[^F,B,][F,A,] G,2 G,G, | %7
 [C,G,]6 z2 | [C,C]2 [C,C][C,C] [C,C]2 [C,G,][C,C] | [G,B,]2 [A,C]2 [G,B,]4 | %10
 [G,B,]2 [G,D][G,C] [G,B,]2 [G,B,][G,B,] | [A,C]2 [F,A,]2 [C,G,]2 [C,G,][E,C] | %12
 [F,C]2 [E,^C][E,C] [D,D]2 [^F,A,][F,=C] | [G,C]2 [E,C][D,B,] [C,C]4 | %14
 [F,C]2 [^F,B,][F,A,] G,2 G,G, | [C,G,]8 |] %16
V:4
 x8 | x8 | x8 | x8 | x8 | x8 | F,2 z2 z4 | x8 | x8 | x8 | x8 | x8 | x8 | x8 | x8 | x8 |] %16

